X:1
T:Ragging the Waves
T:Ragging the Waves
T:By Joe Rosey
T:Copyright 1917 by Jos. W. Stern &amp; Co
T:Copyright 1917 by Jos. W. Stern &amp; Co
T:Copyright 1917 by Jos. W. Stern &amp; Co
T:Copyright 1917 by Jos. W. Stern &amp; Co
T:Copyright 1917 by Jos. W. Stern &amp; Co
C:By Joe Rosey
Z:Copyright 1917 by Jos. W. Stern & Co
%%score { ( 1 3 ) | ( 2 4 ) }
L:1/8
Q:1/4=180
M:2/2
K:F
V:1 treble nm="Piano" snm="Pno."
V:3 treble 
V:2 bass 
V:4 bass 
V:1
"^Tempo di Fox Trot."!<(! (3(c/d/e/!<)! |!f! (!^!f>)ed>c) (!^!d>cB>A) | (!^!B>AG>F) (!^!G>FE>D) | %3
 .C z!<(! (3C=B,C!<)!!>(! !^!_D2 !^!C2!>)! | z2!<(! (3c=Bc!<)!!>(! !^!_d2 c z!>)! |: %5
!mf!!f!"_-" [Ac]2 [Acf]2 [Acf]2 [Ac]2 | (3d^cd f>d =c2 (!^!d>c | B) z (!^!c>B A) z (!^!B>A | %8
 G) z!<(! (3CDE!<)!!>(! D2 C2!>)! | [CFAc]2 [Acf]2 [Acf]2 [Ac]2 | (3d^cd f>g a z (a>g | %11
 f) z (e>d c) z (=G>A |1 [A,F]) z{/=B} !^![Cc] z{/B} !^![Cc] z{/B} !^![Cc] z :|2 %13
 [A,F] z !^![C_EF]2 !^![CEG]2 !^![CEA]2 || %14
[K:Bb]!f! [B,DB]2 !^![DFB]2 !^![^C=EB] !^![=C_EB]2 !^![B,DB]- | B4- B2 (3FGA | %16
 [DB]2 [DFB]2 [^C=EB] [=C_EB]2 [B,DB]- | B4- B!<(![Cc][Dd][Ee]!<)! | %18
{^cd} [Ff]2{cd} [Gg]2{cd} [Ff]2{cd} [Gg]2 |{^cd} !^![Ff] !^![Geg]2 !^![Fdf]- [Fdf]2{cd} !^![Gg]2 | %20
 [Aef]2 [Ac]2 c>ed>c | (3!^!ded !^![EGB]2 !^![DFB]>FG>A | %22
 [B,DB]2 !^![DFB]2 !^![^C=EB] !^![=C_EB]2 !^![B,DB]- | B4- B2 (3FGA | %24
 [DB]2 [DFB]2 [^C=EB] [=C_EB]2 [B,DB]- | B4- B>fg>a | !^!b>ag>f !^!g>fe>d | !^!e>dc>B !^!c>FG>A | %28
 [B,DB]2 !^![DFB]2 !^![^C=EB] !^![=C_EB]2 !^![B,DB]- | [B,DB]2 z2 !^![=EBc]3 (3c/d/e/ || %30
[K:F] !^![Af]2 f>f g>gc'>b | (3(aba) f2- f>cf>e | B z !>![dbd']>c' [db]>a[dg]>f | (f4 e2) g2 | %34
 [Gg]>^f[Gg]>f [Gg]>f[=fa]>=b | (3([ec']d'c') [eg]2- [eg]>g[cc']>g | =b>ag>f e>dg>e | %37
 c z c>d c>d c>d || !>![FAc] z z2 z3/2 c<dc/ | [^G=B] [Ac]2 [_Bf]- [Bf]2 [Bfg]2 | %40
 [Afa] z (3(faf e>ad>a | c) z !^![ca]2 !^![c^d^g] !^![cda]3 | !^![cebc']2 (3(bc'b a>c'_a>c' | %43
 .[eg]) z z2 z4 | z2 (3(cfc =B>f_B>f | .A) z c'>=b!<(! c'>^c'd'>e'!<)! | %46
!8va(! !^!f' z !^!f2 !^!f2 c'>b | a>c'f'>e' f'>a'g'>f' | !^!g' z !^!g2 !^!g2 g>f | %49
 e>g [ec'] z [ec']2 z2!8va)! | z2 !^![F^Gf]4 !^![FGd]2 | !^![FAc]2 !^![Fd]2 !^![Fc]2 !^![EB]2 | %52
 A2 F2 F z g>b | (3[fa]ba .f z .f z ||[K:C]!f!!8va(! !^!g'>!^!^f' | !^!g'2 !^!g2 !^!g2 d'>c' | %56
!<(! b>d' g'!<)! z !^!g'4!8va)! |!p! (3G,^F,G,!<(! _A,2 (3=A,^G,A, _B,2!<)! | %58
"_cresc." (3=B,A,B, C>^C!f! [B,D] z!ff! !^!=c'>!^!b | !^!c'2 !^!c2 !^!c2 !^!g>f | %60
 (e>g c') z !^!c'4 |!p! (3CB,C!<(! ^C2 (3DCD _E2!<)! | %62
"_cresc." (3=E^DE F>^F!f!!ff!"_-" [EG] z (!^![Cc]>!^![=B,=B] | %63
 !^![Cc]) z z2 z2 (!^![E_Be]>!^![^D^d] | !^![E_Be]) z z2 z2 (!^![Gg]>!^![^F^f] | %65
 !^![G_Beg]) z!<(!{/e} !^![cc']2{/f} !^![cc']2{/^f} !^![cc']2!<)! |{/g} !^![cc']4 [ce_bc'] z z2 || %67
[K:F]!ff! [Ac]2 [Acf]2 [Acf]2 [Ac]2 | (3d^cd f>d =c2 (!^!d>c | B) z (!^!c>B A) z (!^!B>A | %70
 G) z!<(! (3CDE!<)!!>(! D2 C2!>)! | [CFAc]2 [Acf]2 [Acf]2 [Ac]2 | (3d^cd f>g a z (a>g | %73
 f) z (e>d c) z =G>A | [Af] z !^![cebc'] z !^![fac'f'] z z (3c/d/e/ | %75
 !^!f z (3(c=Bc) ((!^![F_A_d]2 [F=Ac])) z | z2 !^![E_Bce]2 !^![FAcf]2 z2 |] %77
V:2
 (3(C/D/E/ | (!^!F>)ED>C) (!^!D>CB,>A,) | (!^!B,>A,G,>F,) (!^!G,>F,E,>D,) | %3
 .C, z (3C,=B,,C, !^!_D,2 !^!C,2 | [C,,C,] z C2 (!^!=B,2 C) z |: [F,,F,]2 [A,CF]2 A,,2 [A,CF]2 | %6
 B,,2 [F,B,D]2 !arpeggio![F,,C,A,]2 ((!^![D,,D,]2 | %7
 [G,,G,])) z ((!^![C,,C,]2 [F,,F,])) z ((!^![_D,,_D,]2 | [C,,C,])) z (3E,F,G, F,2 E,2 | %9
 [F,,F,]2 [A,CF]2 A,,2 [A,CF]2 | [B,,B,]2 [B,,B,]2 [A,,A,] z (([^C,,^C,]2 | %11
 [D,,D,])) z (([=B,,=B,]2 [C,C])) z (([C,,C,]2 |1 %12
 [F,,F,])) z !^![C,,C,] z !^![D,,D,] z !^![E,,E,] z :|2 %13
 [F,,F,] z !^![A,,A,]2 !^![G,,G,]2 !^![F,,F,]2 ||[K:Bb] F,2 !^!_A,2 !^!G, !^!_G,2 !^!F,- | %15
 F,2 (3D,^C,=C, B,,2 !>![F,A,]2 | F,2 _A,2 G, _G,2 F,- | F,2 (3D,^C,=C, B,, z z2 | %18
 [B,,B,]2 [F,B,D]2 [F,,F,]2 [F,B,D]2 | [B,,B,]2 [F,B,D]2 [F,,F,]2 [F,B,D]2 | %20
 C,2 [E,F,A,]2 [F,,F,]2 [E,F,G,]2 | B,,2 B,2 B,3/2 z/ z2 | F,2 !^!_A,2 !^!G, !^!_G,2 !^!F,- | %23
 F,2 (3D,^C,=C, B,,2 !>![F,A,]2 | F,2 _A,2 G, _G,2 F,- | F,2 (3D,^C,=C, B,,>F,G,>A, | %26
 !^!B,>A,G,>F, !^!G,>F,E,>D, | !^!E,>D,C,>B,, !^!C, z !^![F,,F,]2 | %28
 F,2 !^!_A,2 !^!G, !^!_G,2 !^!F,- | F,2 z2 !^![G,,G,]4 ||[K:F] [F,,F,]2 [A,CF]2 C,2 [B,CE]2 | %31
 [F,,F,]2 [A,CF]2 C,2 [A,CF]2 | [B,,B,] z !>!G,>A, B,2 =B,2 | (C4 C,) z z2 | %34
 !^![E,,E,]2 !^![_E,,_E,]2 !^![D,,D,]2 [G,=B,F]2 | [C,,C,]2 [G,CE]2 [E,,E,]2 [G,CE]2 | %36
 [F,,F,]2 [F,A,D]2 [G,,G,]2 [G,=B,F]2 | [C,C] z !>![_B,,_B,]2 !>![A,,A,]2 !>![G,,G,]2 || %38
 !>![F,,F,] z!<(! (3A,,B,,=B,,!<)! C, z z2 | [F,,C,]2 [A,CF] z D2 _D2 | %40
{/=B,} C z z2 z2 !^![C,,C,]2 | !^![F,,F,]2 [A,CF]2 [^F,,^F,]2 [A,C^D]2 | %42
 [G,,G,]2 (!>!D2 !>!C2 !>!_C2 | B,) z (!^!B,,2 !^!G,, !^!A,,3 | !^!F,,2) (!^!_E2 !^!D2 !^!_D2 | %45
 .C) z z2 z4 |{/=B,,} !^![F,,C,]2{/B,,} !^![F,,C,]2{/B,,} !^![F,,C,]2 z2 | %47
{/=B,,} !^![F,,C,]2{/B,,} !^![F,,C,]2{/B,,} !^![F,,C,]2 z2 | %48
{/^C,} !^![G,,D,]2{/C,} !^![G,,D,]2{/C,} !^![G,,D,]2 z2 | %49
 [C,G,B,]2 [C,G,B,]2 [C,G,B,]2 !^![C,,C,]2 | !^![=B,,,=B,,]2 !^![=B,,=B,]4 !^![D,B,]2 | %51
 !^![C,C]2 !^!_B,2 !^!A,2 !^!G,2 | [F,,F,]2 [F,A,C]2 [F,A,C] z[K:treble] (([FB_d]2 | %53
 [FAc])) z .[FAc] z .[FAc] z ||[K:C] !^!g>!^!^f | !^!g2 !^!G2 !^!G2 d>c | B>d g z !^!g4 | %57
[K:bass] [G,,B,,D,]2 [G,,C,_E,]2 [G,,C,E,]2 [G,,^C,=E,]2 | %58
 [G,,D,F,]2 _E,>=E, [F,,F,] z[K:treble] !^!=c>!^!B | !^!c2 !^!C2 !^!C2 !^!G>F | (E>G c) z !^!c4 | %61
[K:bass] [C,E,G,]2 [C,F,_A,]2 [C,F,A,]2 [C,^F,=A,]2 | [C,G,B,]2 _A,>=A, _B, z z2 | %63
 z2 !^!C,, z !^!C,, z z2 | z2 !^!C,, z !^!C,, z z2 | %65
 !^!C,, z !^![C,,C,]2 !^![D,,D,]2 !^![^D,,^D,]2 | !^![E,,E,]4 !arpeggio![C,,G,,E,] z z2 || %67
[K:F] [F,,F,]2 [A,CF]2 A,,2 [A,CF]2 | B,,2 [F,B,D]2 !arpeggio![F,,C,A,]2 ((!^![D,,D,]2 | %69
 [G,,G,])) z ((!^![C,,C,]2 [F,,F,])) z ((!^![_D,,_D,]2 | [C,,C,])) z (3E,F,G, F,2 E,2 | %71
 [F,,F,]2 [A,CF]2 A,,2 [A,CF]2 | [B,,B,]2 [B,,B,]2 [A,,A,] z (([^C,,^C,]2 | %73
 [D,,D,])) z (([=B,,=B,]2 [C,C])) z [C,,C,]2 | [F,,F,] z !^![C,,C,] z !^![F,,,F,,] z z (3C/D/E/ | %75
 !^!F z (3(C=B,C) (!^!B,2 .C) z |!8vb(! C,,,!8vb)! z !^![C,C]2 !^![F,,F,]2 z2 |] %77
V:3
 x | x8 | x8 | x8 | x2 E2 ([F_A]2 [EG]) x |: x8 | B4 A2 (^F2 | G) x (E2 =F) x ([B,F]2 | %8
 [B,E]) x B,2 B,2 B,2 | x8 | B2 [Bd]2 [A^c] x ([Ae]2 | [Ad]) x [F^G]2 [FA] x [_B,E]2 |1 x8 :|2 %13
 x8 ||[K:Bb] x8 | [B,D]2 (3F=E_E D2 E2 | x8 | [B,D]2 (3F=E_E D x3 | x8 | x8 | x4 A2 A2 | x8 | x8 | %23
 [B,D]2 (3F=E_E D2 E2 | x8 | [B,D]2 (3F=E_E D3/2 z/ z x | x8 | x8 | x8 | x8 ||[K:F] x4 e4 | x8 | %32
 x8 | [Ac]2 [^G=B]2 [=G_B] z x2 | x8 | x8 | d4 =B4 | x2 E2 F2 [EB]2 || x6 A2 | x8 | x8 | x8 | %42
 x2 e2 e2 e2 | x8 | x8 | x8 |!8va(! x8 | x8 | x8 | x8!8va)! | x8 | x8 | x6 e2 | x6 || %54
[K:C]!8va(! x2 | x8 | x8!8va)! | x8 | x8 | x8 | x8 | x8 | x8 | x8 | x8 | x8 | x8 ||[K:F] x8 | %68
 B4 A2 (^F2 | G) x (E2 =F) x ([B,F]2 | [B,E]) x B,2 B,2 B,2 | x8 | B2 [Bd]2 [A^c] x ([Ae]2 | %73
 [Ad]) x [F^G]2 [FA] x [_B,E]2 | x8 | x8 | x8 |] %77
V:4
 x | x8 | x8 | x8 | x8 |: x8 | x8 | x8 | x8 | x8 | x8 | x8 |1 x8 :|2 x8 ||[K:Bb] B,,8- | B,,2 x6 | %16
 B,,8- | B,,2 x6 | x8 | x8 | x8 | x8 | B,,8- | B,,2 x6 | B,,8- | B,,2 x6 | x8 | x8 | B,,8- | %29
 B,,2 x6 ||[K:F] x8 | x8 | x8 | x8 | x8 | x8 | x8 | x8 || x8 | x4 F,4 | F, x7 | x8 | x8 | x8 | x8 | %45
 x8 | x8 | x8 | x8 | x8 | x8 | x8 | x6[K:treble] x2 | x6 ||[K:C] x2 | x8 | x8 |[K:bass] x8 | %58
 x6[K:treble] x2 | x8 | x8 |[K:bass] x8 | x2 C,2 C, x3 | x8 | x8 | x8 | x8 ||[K:F] x8 | x8 | x8 | %70
 x8 | x8 | x8 | x8 | x8 | x8 |!8vb(! x!8vb)! x7 |] %77

